X:1783
T:Pimpelpolska 
R:Polska
C:Eva Zwahlen
O:Dorotea, Lappland
N:Skriven på Bergvattensjön under en fisketävling.
Z:Eva Zwahlen 2010-03-23, omskriven lite trettondagen 2013
Q:1/4=140
M:3/4
L:1/16
K:Gm
|(3B2c2B2 A4 G4 | ^F3A D6 z F | G3^F G3A B3c | d4 d8 | (3B2c2B2 A4 G4 |F3A c6 z d | B3G ^F3D [B3^F3]A | G4 G8 | 
B3c d4 B4| c3A ^F6 z A |G3^F G3A B3c | d4 d8| B3c d4 B4 | F3A c6 z d| B3G ^F3D [B3^F3]A | G4 G6 z d |: f3d B4 d4 | F3A c6 z d |f3d B4 G4 | {AB}c3A F6 z d| f3d B4 d4 | F3A c6 z d | B3G ^F3D [B3^F3][AD]|1 G4 G6 z d :|2 [G4G,4] [G8G,8]|] 
(:musicend:)
(:music:)
